X: 90
T:The Mason's Apron
N: page 30
N: heptatonic
N: matches 1166
R:reel
C:Trad.
M:C
L:1/8
K:A
"A"c2A2 ABAF | EFAB cABc | "Bm" d2B2 BcBA | "Bm"Bcde "E7" defg | "A"a2A2 cBAF | EFAB cABc |
 "D"  dcde fgaf |[1 "E7"edcB "A"A3 A :|[2"E7"edcB "A"A2|: ed |\
"A"c2ec fcec | Acec fedc |
"Bm" d2fB gdfd | d2fd "E7"gfed |\
"A"c2ec fcec | Acec fedc | "D" dcde "D" fgaf | "E7"edcB "A"A2 :|
